assets/images/members/td/td.svg

<svg version="1.2" xmlns="http://www.w3.org/2000/svg" viewBox="0 0 400 358"><defs><clipPath clipPathUnits="userSpaceOnUse" id="cp1"><path d="m0 357.73h400v-357.73h-400z"/></clipPath></defs><style>.a{fill:#54b948}.b{fill:#fff}</style><path class="a" d="m0 357.7h400v-357.7h-400z"/><g clip-path="url(#cp1)"><path class="b" d="m262.6 280.3h-93.2v-167.8h46.8v138.1h45c31.1 0 44.2-21.5 44.2-76.9 0-55.8-14.9-72-46.4-72h-102.7v178.6h-46.3v-178.6h-68v-29.8h231.4c55.8 0 82.4 28.9 82.4 101.3 0 95.4-39.6 107.1-93.2 107.1z"/></g></svg>

<svg xmlns="http://www.w3.org/2000/svg" viewBox="0 0 400 358"><defs><clipPath id="a" clipPathUnits="userSpaceOnUse"><path d="M0 357.73h400V0H0z"/></clipPath></defs><path d="M0 357.7h400V0H0z" style="fill:#54b948"/><g clip-path="url(#a)"><path d="M262.6 280.3h-93.2V112.5h46.8v138.1h45c31.1 0 44.2-21.5 44.2-76.9 0-55.8-14.9-72-46.4-72H156.3v178.6H110V101.7H42V71.9h231.4c55.8 0 82.4 28.9 82.4 101.3 0 95.4-39.6 107.1-93.2 107.1" style="fill:#fff"/></g></svg>
